icons/lines/coin-one.svg

<svg xmlns="http://www.w3.org/2000/svg" width="24" height="24" viewBox="0 0 24 24" fill="none" stroke="currentColor" stroke-width="2" stroke-linecap="round" stroke-linejoin="round" >
  <path d="M8 11.4C8 12.17 8.6 12.8 9.33 12.8H10.83C11.47 12.8 11.99 12.25 11.99 11.58C11.99 10.85 11.67 10.59 11.2 10.42L8.8 9.58001C8.32 9.41001 8 9.15001 8 8.42001C8 7.75001 8.52 7.20001 9.16 7.20001H10.66C11.4 7.21001 12 7.83001 12 8.60001"/>
  <path d="M10 12.85V13.59"/>
  <path d="M10 6.41V7.19"/>
  <path d="M9.99 17.98C14.4028 17.98 17.98 14.4028 17.98 9.99C17.98 5.57724 14.4028 2 9.99 2C5.57724 2 2 5.57724 2 9.99C2 14.4028 5.57724 17.98 9.99 17.98Z"/>
  <path d="M12.98 19.88C13.88 21.15 15.35 21.98 17.03 21.98C19.76 21.98 21.98 19.76 21.98 17.03C21.98 15.37 21.16 13.9 19.91 13"/>
  </svg>

<svg xmlns="http://www.w3.org/2000/svg" width="24" height="24" viewBox="0 0 24 24" fill="none" stroke="currentColor" stroke-width="2" stroke-linecap="round" stroke-linejoin="round">
  <path d="M10 12.85v.74" />
  <path d="M10 6.41v.78" />
  <path d="M12.98 19.88a5 5 0 0 0 9-2.85A5 5 0 0 0 19.91 13" />
  <path d="M8 11.4c0 .77.6 1.4 1.33 1.4h1.5c.64 0 1.16-.55 1.16-1.22 0-.73-.32-.99-.79-1.16l-2.4-.84c-.48-.17-.8-.43-.8-1.16 0-.67.52-1.22 1.16-1.22h1.5c.74.01 1.34.63 1.34 1.4" />
  <circle cx="9.99" cy="9.99" r="8" />
</svg>
